X: 38319
T: Stack Of Barley, The
R: hornpipe
M: 4/4
K: Gmajor
|:gf|e3d BedB|AGEG AcBA|G3A BA (3Bcd|e2 A2 A2 gf|
efed BedB|AGEG AcBA|G3A BdAc|1 B2G2 G2:|2 B2G2 G3A||
|:BG (3Bcd g2 fg|afgf edBd|g2 fg edBd|e2 A2 A2 A2|
(3Bcd ef g2 fe|dBAG AcBA|G3A BdAc|B2 G2 G2:|

